X: 5
T: Bonaparte Crossing The Rhine
R: hornpipe
M: 4/4
L: 1/8
K: Dmaj
FG|:"D" [FA]B AF [F2A2] de|fefa [A2d2] dc|"G" BcdB "D" AFDF|
"A" E2 E>F E2 FG|"D" [FA]B AF [F2A2] de|fefa [A2d2] dc|
"G" BcdB "D" AF "A"EF|1 "D" D2 DE D2 FG :|2 "D" D2 DE D2 de||
|:"D" fefg [A2a2] aA|"G" [GB]A Bc "D" [A3d3] A| "G" [GB]c dB "D" AFDF|
"A" E2 E>F E2 FG|"D"[FA]B AF [F2A2] de| [Af]e fa [A3d3] d|
"G" B>c dB "D" AF "A"EF|1 "D" D2 D>E DAde :|2 "D" D2 D>E [D4A4]||


Tune 7	Setting 7

